; generated by PrusaSlicer 2.7.2+MacOS-arm64 on 2024-04-18 at 20:36:30 UTC


;
;
; 

; external perimeters extrusion width = 0.45mm
; perimeters extrusion width = 0.45mm
; infill extrusion width = 0.45mm
; solid infill extrusion width = 0.45mm
; top infill extrusion width = 0.40mm
; first layer extrusion width = 0.42mm

M73 P0 R34
M73 Q0 S34
M201 X1000 Y1000 Z200 E5000 ; sets maximum accelerations, mm/sec^2
M203 X200 Y200 Z12 E120 ; sets maximum feedrates, mm / sec
M204 S1250 T1250 ; sets acceleration (S) and retract acceleration (R), mm/sec^2
M205 X8.00 Y8.00 Z0.40 E4.50 ; sets the jerk limits, mm/sec
M205 S0 T0 ; sets the minimum extruding and travel feed rate, mm/sec

; printing object lens-splitzer.stl id:0 copy 0
; stop printing object lens-splitzer.stl id:0 copy 0

;TYPE:Custom
M862.3 P "MK3S" ; printer model check
M862.1 P0.4 ; nozzle diameter check
M115 U3.12.1 ; tell printer latest fw version
G90 ; use absolute coordinates
M83 ; extruder relative mode
M104 S215 ; set extruder temp
M140 S60 ; set bed temp
M190 S60 ; wait for bed temp
M109 S215 ; wait for extruder temp
G28 W ; home all without mesh bed level
G80 ; mesh bed leveling

G1 Z0.2 F720
G1 Y-3 F1000 ; go outside print area
G92 E0
G1 X60 E9 F1000 ; intro line
G1 X100 E12.5 F1000 ; intro line
M73 P0 R33

G92 E0
M221 S95

; Don't change E values below. Excessive value can damage the printer.
M907 E430 ; set extruder motor current
G21 ; set units to millimeters
G90 ; use absolute coordinates
M83 ; use relative distances for extrusion
M900 K0.05 ; Filament gcode LA 1.5
M900 K30 ; Filament gcode LA 1.0
M107
;LAYER_CHANGE
;Z:0.2
;HEIGHT:0.2
G1 E-.8 F2100
G1 Z.6 F720
G1 X95.845 Y80.509 F10800
G1 Z.2 F720
G1 E.8 F2100
M73 Q0 S33
M204 S800
;TYPE:Skirt/Brim
;WIDTH:0.42
G1 F1200
G1 X97.158 Y79.025 E.06213
G1 X98.535 Y77.624 E.06159
G1 X101.053 Y75.396 E.10542
G1 X102.636 Y74.183 E.06253
G1 X104.279 Y73.055 E.06249
G1 X105.944 Y72.035 E.06122
G1 X107.695 Y71.083 E.06249
G1 X110.755 Y69.688 E.10544
G1 X112.584 Y69.004 E.06123
G1 X114.485 Y68.404 E.0625
G1 X116.414 Y67.904 E.06248
G1 X118.368 Y67.505 E.06253
G1 X121.702 Y67.066 E.10544
G1 X123.65 Y66.947 E.06119
G1 X125.644 Y66.928 E.06252
G1 X127.635 Y67.014 E.06248
G1 X129.62 Y67.204 E.06252
G1 X132.937 Y67.759 E.10545
G1 X134.875 Y68.226 E.0625
G1 X136.747 Y68.78 E.06121
G1 X139.897 Y69.958 E.10545
G1 X141.673 Y70.768 E.0612
G1 X143.442 Y71.687 E.0625
G1 X146.31 Y73.444 E.10546
G1 X147.899 Y74.578 E.06121
G1 X149.46 Y75.818 E.06251
G1 X150.953 Y77.138 E.06248
G1 X152.368 Y78.526 E.06215
G1 X154.604 Y81.053 E.1058
G1 X155.793 Y82.602 E.06123
G1 X156.923 Y84.244 E.0625
G1 X157.96 Y85.934 E.06217
G1 X158.903 Y87.667 E.06186
G1 X160.312 Y90.755 E.10642
G1 X160.996 Y92.584 E.06123
G1 X161.596 Y94.485 E.0625
G1 X162.096 Y96.414 E.06248
G1 X162.493 Y98.356 E.06215
G1 X162.934 Y101.702 E.10582
G1 X163.053 Y103.65 E.06119
G1 X163.072 Y105.644 E.06252
G1 X162.866 Y109.001 E.10545
G1 X162.611 Y110.936 E.0612
G1 X162.249 Y112.896 E.06249
G1 X161.407 Y116.152 E.10545
G1 X160.774 Y118.043 E.06252
G1 X160.042 Y119.897 E.0625
G1 X159.214 Y121.71 E.06249
G1 X158.313 Y123.442 E.06121
G1 X156.556 Y126.31 E.10546
G1 X155.422 Y127.899 E.06121
G1 X154.182 Y129.46 E.06251
G1 X152.862 Y130.953 E.06248
G1 X151.465 Y132.376 E.06252
G1 X148.947 Y134.604 E.10542
G1 X147.398 Y135.793 E.06123
G1 X145.756 Y136.923 E.0625
G1 X144.056 Y137.965 E.06252
G1 X142.305 Y138.917 E.06249
G1 X139.245 Y140.312 E.10544
G1 X137.416 Y140.996 E.06123
G1 X135.515 Y141.596 E.0625
G1 X133.586 Y142.096 E.06248
G1 X131.632 Y142.495 E.06253
G1 X128.298 Y142.934 E.10544
G1 X126.35 Y143.053 E.06119
G1 X124.356 Y143.072 E.06252
G1 X120.999 Y142.866 E.10545
G1 X119.064 Y142.611 E.0612
G1 X117.104 Y142.249 E.06249
G1 X113.848 Y141.407 E.10545
G1 X111.957 Y140.774 E.06252
G1 X110.103 Y140.042 E.0625
G1 X108.29 Y139.214 E.06249
G1 X106.558 Y138.313 E.06121
G1 X103.69 Y136.556 E.10546
G1 X102.068 Y135.397 E.06251
G1 X100.54 Y134.182 E.06121
G1 X99.047 Y132.862 E.06248
G1 X97.632 Y131.474 E.06215
G1 X95.396 Y128.947 E.1058
G1 X94.207 Y127.398 E.06123
G1 X93.083 Y125.765 E.06216
G1 X91.37 Y122.858 E.10579
G1 X90.482 Y121.073 E.06251
G1 X89.692 Y119.256 E.06212
G1 X88.995 Y117.388 E.06251
G1 X88.404 Y115.515 E.06158
G1 X87.904 Y113.586 E.06248
G1 X87.507 Y111.644 E.06215
G1 X87.067 Y108.31 E.10544
G1 X86.947 Y106.35 E.06157
G1 X86.928 Y104.356 E.06252
G1 X87.133 Y101.011 E.10508
G1 X87.387 Y99.075 E.06122
G1 X87.751 Y97.104 E.06284
G1 X88.593 Y93.848 E.10545
G1 X89.226 Y91.957 E.06252
G1 X89.958 Y90.103 E.0625
G1 X90.786 Y88.29 E.06249
G1 X91.701 Y86.532 E.06214
G1 X92.698 Y84.84 E.06158
G1 X93.79 Y83.187 E.06212
G1 X95.808 Y80.556 E.10396
M204 S1000
; printing object lens-splitzer.stl id:0 copy 0
;WIPE_START
G1 F8640
G1 X95.845 Y80.509 E-.01381
G1 X97.158 Y79.025 E-.45753
G1 X98.155 Y78.01 E-.32866
;WIPE_END
G1 Z.6 F720
G1 X133.804 Y71.221 F10800
G1 Z.2 F720
G1 E.8 F2100
M204 S800
;TYPE:Perimeter
;WIDTH:0.419999
G1 F1200
G1 X134.039 Y71.278 E.00758
G1 X135.205 Y71.612 E.03803
G1 X136.941 Y72.193 E.0574
G1 X138.641 Y72.863 E.05729
G1 X140.307 Y73.622 E.0574
G1 X141.388 Y74.173 E.03804
G1 X142.981 Y75.074 E.05738
M73 Q1 S33
G1 X144.523 Y76.056 E.05732
G1 X146.013 Y77.119 E.05739
G1 X146.969 Y77.866 E.03804
G1 X148.361 Y79.055 E.0574
M73 P1 R33
G1 X148.846 Y79.515 E.02096
;WIDTH:0.459906
G1 X148.989 Y79.678 E.00752
;WIDTH:0.499813
G1 X149.132 Y79.841 E.00824
;WIDTH:0.53972
G1 X149.275 Y80.004 E.00896
;WIDTH:0.54655
G1 X150.076 Y80.807 E.0475
;WIDTH:0.541013
G1 X150.905 Y81.694 E.05028
;WIDTH:0.549331
G1 X151.69 Y82.595 E.05032
G1 X152.093 Y83.092 E.02694
G1 X152.827 Y84.023 E.04992
G1 X153.194 Y84.528 E.02629
;WIDTH:0.544082
G1 X153.88 Y85.494 E.04937
G1 X154.539 Y86.522 E.05089
;WIDTH:0.539196
G1 X154.559 Y86.554 E.00156
;WIDTH:0.549333
G1 X154.871 Y87.052 E.02475
G1 X155.462 Y88.086 E.05015
;WIDTH:0.538996
G1 X155.469 Y88.099 E.00061
;WIDTH:0.546785
G1 X156.049 Y89.191 E.0518
;WIDTH:0.544146
G1 X156.597 Y90.299 E.05152
G1 X157.32 Y91.963 E.07561
;WIDTH:0.549333
G1 X157.744 Y93.073 E.05003
G1 X157.952 Y93.68 E.02702
G1 X158.323 Y94.805 E.04988
G1 X158.495 Y95.405 E.02628
;WIDTH:0.547264
G1 X158.887 Y96.885 E.06421
;WIDTH:0.544068
G1 X159.205 Y98.324 E.06141
;WIDTH:0.544235
G1 X159.214 Y98.37 E.00195
;WIDTH:0.549332
G1 X159.419 Y99.551 E.05047
G1 X159.656 Y101.351 E.07645
G1 X159.8 Y103.183 E.07738
G1 X159.822 Y103.794 E.02574
;WIDTH:0.544066
G1 X159.85 Y105.03 E.05152
G1 X159.801 Y106.853 E.07599
G1 X159.656 Y108.672 E.07604
G1 X159.425 Y110.423 E.0736
;WIDTH:0.544235
G1 X159.418 Y110.471 E.00202
;WIDTH:0.549364
G1 X159.08 Y112.268 E.077
G1 X158.956 Y112.836 E.02448
G1 X158.662 Y113.994 E.05031
;WIDTH:0.539197
G1 X158.65 Y114.038 E.00188
;WIDTH:0.549334
G1 X158.498 Y114.605 E.02472
G1 X158.145 Y115.743 E.05017
;WIDTH:0.539192
G1 X158.131 Y115.787 E.00191
;WIDTH:0.549332
G1 X157.949 Y116.345 E.02471
G1 X157.537 Y117.463 E.05017
;WIDTH:0.539194
G1 X157.521 Y117.506 E.00189
;WIDTH:0.549402
G1 X157.31 Y118.057 E.02485
G1 X156.848 Y119.15 E.04997
;WIDTH:0.544251
G1 X156.825 Y119.202 E.00237
;WIDTH:0.544083
G1 X156.038 Y120.848 E.07603
G1 X155.196 Y122.399 E.07354
G1 X154.244 Y123.956 E.07605
G1 X153.177 Y125.508 E.07848
G1 X152.102 Y126.909 E.07359
G1 X151.307 Y127.846 E.05121
;WIDTH:0.539196
G1 X151.282 Y127.875 E.00158
;WIDTH:0.549333
G1 X150.897 Y128.318 E.02471
G1 X150.081 Y129.186 E.05017
;WIDTH:0.539079
G1 X150.055 Y129.213 E.00155
;WIDTH:0.546783
G1 X149.185 Y130.081 E.05149
;WIDTH:0.549367
G1 X148.32 Y130.895 E.05002
G1 X147.844 Y131.314 E.0267
G1 X147.402 Y131.693 E.02452
G1 X146.471 Y132.441 E.05029
;WIDTH:0.539194
G1 X146.435 Y132.469 E.00188
;WIDTH:0.549331
G1 X145.972 Y132.831 E.02475
G1 X145.005 Y133.527 E.05017
;WIDTH:0.539193
G1 X144.968 Y133.553 E.00187
;WIDTH:0.549332
G1 X144.487 Y133.89 E.02473
G1 X143.485 Y134.535 E.05018
;WIDTH:0.539079
G1 X143.453 Y134.555 E.00156
;WIDTH:0.54679
G1 X142.399 Y135.187 E.05149
;WIDTH:0.54937
G1 X141.354 Y135.772 E.05043
G1 X139.733 Y136.58 E.07627
G1 X138.048 Y137.313 E.07738
G1 X136.352 Y137.947 E.07625
G1 X134.612 Y138.496 E.07683
G1 X132.842 Y138.954 E.07699
G1 X132.23 Y139.088 E.02638
;WIDTH:0.546872
G1 X131.028 Y139.321 E.05131
;WIDTH:0.549368
G1 X130.454 Y139.419 E.02452
G1 X129.271 Y139.58 E.05028
;WIDTH:0.539195
G1 X129.226 Y139.585 E.00187
;WIDTH:0.549333
G1 X128.643 Y139.657 E.02474
G1 X127.455 Y139.756 E.0502
;WIDTH:0.539195
G1 X127.41 Y139.759 E.00186
;WIDTH:0.549331
G1 X126.824 Y139.8 E.02474
G1 X125.633 Y139.837 E.05018
;WIDTH:0.539195
G1 X125.587 Y139.838 E.0019
;WIDTH:0.549333
G1 X125 Y139.848 E.02472
G1 X123.809 Y139.822 E.05016
;WIDTH:0.539078
G1 X123.771 Y139.821 E.00157
;WIDTH:0.546782
G1 X122.544 Y139.756 E.05148
;WIDTH:0.549421
G1 X121.351 Y139.656 E.05042
G1 X119.551 Y139.419 E.07646
G1 X118.351 Y139.208 E.05131
G1 X117.187 Y138.963 E.0501
;WIDTH:0.544253
G1 X117.132 Y138.95 E.00236
;WIDTH:0.544083
G1 X115.423 Y138.508 E.07356
G1 X114.25 Y138.142 E.05121
;WIDTH:0.539195
G1 X114.213 Y138.131 E.00159
;WIDTH:0.549332
G1 X113.655 Y137.949 E.02471
G1 X112.537 Y137.537 E.05017
;WIDTH:0.539196
G1 X112.494 Y137.521 E.00189
;WIDTH:0.549334
G1 X111.946 Y137.311 E.02471
G1 X110.851 Y136.84 E.05019
;WIDTH:0.539195
G1 X110.809 Y136.822 E.00189
;WIDTH:0.549332
G1 X110.273 Y136.583 E.02471
G1 X109.204 Y136.056 E.05019
;WIDTH:0.539195
G1 X109.163 Y136.036 E.00188
;WIDTH:0.549334
G1 X108.64 Y135.769 E.02473
G1 X107.6 Y135.187 E.05018
;WIDTH:0.539194
G1 X107.561 Y135.164 E.00187
;WIDTH:0.54936
G1 X107.051 Y134.87 E.02479
G1 X106.044 Y134.238 E.05007
;WIDTH:0.546737
G1 X104.539 Y133.211 E.07633
;WIDTH:0.544083
G1 X103.091 Y132.102 E.07601
G1 X102.154 Y131.307 E.05121
;WIDTH:0.539198
G1 X102.125 Y131.282 E.00158
;WIDTH:0.549335
G1 X101.682 Y130.897 E.02471
G1 X100.815 Y130.081 E.05013
;WIDTH:0.538996
G1 X100.803 Y130.071 E.00064
;WIDTH:0.546532
G1 X99.988 Y129.258 E.04821
;WIDTH:0.539587
G1 X99.83 Y129.121 E.00864
;WIDTH:0.499725
G1 X99.673 Y128.984 E.00791
;WIDTH:0.459862
G1 X99.516 Y128.847 E.00722
;WIDTH:0.419999
G1 X99.059 Y128.366 E.0208
G1 X98.257 Y127.443 E.03834
G1 X97.117 Y126.011 E.05739
G1 X96.056 Y124.523 E.0573
G1 X95.074 Y122.981 E.05732
G1 X94.174 Y121.39 E.05731
G1 X93.358 Y119.755 E.05729
G1 X92.632 Y118.085 E.0571
G1 X92.194 Y116.943 E.03835
G1 X91.613 Y115.207 E.0574
G1 X91.124 Y113.446 E.0573
G1 X90.728 Y111.659 E.05739
G1 X90.517 Y110.464 E.03805
G1 X90.279 Y108.649 E.0574
G1 X90.135 Y106.827 E.05731
G1 X90.087 Y105 E.0573
G1 X90.135 Y103.173 E.0573
G1 X90.278 Y101.358 E.05708
G1 X90.427 Y100.144 E.03835
G1 X90.729 Y98.338 E.05741
G1 X91.125 Y96.553 E.05733
G1 X91.525 Y95.09 E.04755
G1 X91.989 Y93.634 E.04791
G1 X92.629 Y91.921 E.05734
G1 X93.358 Y90.245 E.05731
G1 X94.174 Y88.609 E.05732
G1 X95.074 Y87.019 E.05729
G1 X96.052 Y85.483 E.05709
G1 X96.754 Y84.481 E.03836
G1 X97.868 Y83.029 E.05738
G1 X99.055 Y81.639 E.05731
G1 X100.314 Y80.312 E.05735
G1 X101.414 Y79.261 E.0477
G1 X102.558 Y78.256 E.04774
G1 X103.989 Y77.117 E.05735
G1 X105.477 Y76.056 E.0573
G1 X107.019 Y75.074 E.05732
G1 X108.609 Y74.174 E.05729
G1 X110.245 Y73.358 E.05732
G1 X111.921 Y72.629 E.05731
G1 X113.636 Y71.989 E.05739
G1 X114.799 Y71.611 E.03834
G1 X116.554 Y71.124 E.05711
G1 X118.338 Y70.729 E.05729
G1 X120.141 Y70.427 E.05732
G1 X121.957 Y70.22 E.05731
G1 X123.784 Y70.108 E.05739
G1 X125.007 Y70.087 E.03835
G1 X126.827 Y70.135 E.05708
G1 X128.649 Y70.279 E.05731
G1 X130.462 Y70.517 E.05733
G1 X132.259 Y70.85 E.0573
G1 X133.745 Y71.207 E.04792
M204 S1000
G1 X133.745 Y71.207 F10800
G1 X133.892 Y70.854
M204 S800
;TYPE:External perimeter
G1 F1200
G1 X134.135 Y70.913 E.00784
G1 X135.317 Y71.252 E.03855
G1 X137.07 Y71.838 E.05795
G1 X138.789 Y72.515 E.05793
G1 X140.471 Y73.282 E.05796
G1 X141.567 Y73.84 E.03856
G1 X143.176 Y74.751 E.05797
G1 X144.734 Y75.743 E.05791
G1 X146.239 Y76.817 E.05797
G1 X147.208 Y77.574 E.03855
G1 X148.614 Y78.774 E.05796
G1 X149.954 Y80.047 E.05795
G1 X151.014 Y81.155 E.04808
G1 X152.033 Y82.316 E.04843
G1 X153.184 Y83.762 E.05795
G1 X154.257 Y85.266 E.05793
G1 X155.249 Y86.824 E.05791
G1 X156.159 Y88.432 E.05793
G1 X156.984 Y90.086 E.05795
G1 X157.717 Y91.772 E.05764
G1 X158.161 Y92.929 E.03886
G1 X158.748 Y94.682 E.05796
G1 X159.242 Y96.463 E.05795
G1 X159.642 Y98.267 E.05794
G1 X159.855 Y99.479 E.03858
G1 X160.097 Y101.311 E.05794
G1 X160.242 Y103.171 E.0585
G1 X160.29 Y105 E.05737
G1 X160.242 Y106.847 E.05793
G1 X160.097 Y108.689 E.05793
G1 X159.855 Y110.521 E.05794
G1 X159.642 Y111.734 E.03861
G1 X159.386 Y112.938 E.03859
G1 X158.923 Y114.727 E.05794
G1 X158.367 Y116.489 E.05793
G1 X157.72 Y118.221 E.05797
G1 X157.239 Y119.353 E.03856
G1 X156.444 Y121.021 E.05794
G1 X155.562 Y122.645 E.05794
G1 X154.597 Y124.22 E.05792
G1 X153.55 Y125.743 E.05795
G1 X152.425 Y127.209 E.05794
G1 X151.226 Y128.614 E.05791
G1 X149.954 Y129.954 E.05793
G1 X148.613 Y131.226 E.05795
G1 X147.685 Y132.033 E.03856
G1 X146.238 Y133.184 E.05797
G1 X144.734 Y134.257 E.05793
G1 X143.176 Y135.249 E.05791
G1 X141.568 Y136.159 E.05793
G1 X139.914 Y136.984 E.05795
G1 X138.22 Y137.72 E.05791
G1 X136.489 Y138.367 E.05794
G1 X134.727 Y138.923 E.05793
G1 X132.938 Y139.386 E.05794
G1 X131.734 Y139.642 E.03859
G1 X130.521 Y139.855 E.03861
G1 X128.689 Y140.097 E.05794
G1 X126.847 Y140.242 E.05793
G1 X125 Y140.29 E.05793
G1 X123.153 Y140.242 E.05793
G1 X121.311 Y140.097 E.05793
G1 X119.479 Y139.855 E.05794
G1 X118.266 Y139.642 E.03861
G1 X117.062 Y139.386 E.03859
G1 X115.273 Y138.923 E.05794
G1 X113.511 Y138.367 E.05793
G1 X111.78 Y137.72 E.05794
G1 X110.086 Y136.984 E.05791
G1 X108.432 Y136.159 E.05795
G1 X106.824 Y135.249 E.05793
G1 X105.523 Y134.427 E.04825
G1 X104.257 Y133.55 E.04829
G1 X102.791 Y132.425 E.05794
G1 X101.386 Y131.226 E.05791
G1 X100.046 Y129.954 E.05793
G1 X98.78 Y128.62 E.05766
G1 X97.967 Y127.685 E.03885
G1 X96.816 Y126.238 E.05797
G1 X95.743 Y124.734 E.05793
G1 X94.751 Y123.176 E.05791
G1 X93.841 Y121.568 E.05793
G1 X93.016 Y119.914 E.05795
G1 X92.283 Y118.228 E.05764
G1 X91.839 Y117.071 E.03886
G1 X91.252 Y115.318 E.05796
G1 X90.758 Y113.537 E.05795
G1 X90.358 Y111.733 E.05794
G1 X90.145 Y110.521 E.03858
G1 X89.903 Y108.689 E.05794
G1 X89.758 Y106.847 E.05793
G1 X89.71 Y105 E.05793
G1 X89.758 Y103.153 E.05793
G1 X89.903 Y101.32 E.05765
G1 X90.053 Y100.09 E.03885
G1 X90.358 Y98.266 E.05798
G1 X90.758 Y96.462 E.05794
G1 X91.163 Y94.983 E.04808
G1 X91.633 Y93.511 E.04845
G1 X92.28 Y91.78 E.05794
G1 X93.016 Y90.086 E.05791
G1 X93.841 Y88.432 E.05795
G1 X94.751 Y86.824 E.05793
G1 X95.739 Y85.273 E.05766
G1 X96.449 Y84.258 E.03884
G1 X97.575 Y82.791 E.05798
G1 X98.774 Y81.386 E.05791
G1 X100.047 Y80.046 E.05795
G1 X101.159 Y78.983 E.04823
G1 X102.316 Y77.967 E.04828
G1 X103.762 Y76.816 E.05795
G1 X105.266 Y75.743 E.05793
G1 X106.824 Y74.751 E.05791
G1 X108.432 Y73.841 E.05793
G1 X110.086 Y73.016 E.05795
G1 X111.78 Y72.28 E.05791
M73 Q2 S33
G1 X113.512 Y71.632 E.05798
G1 X114.69 Y71.25 E.03883
G1 X116.463 Y70.758 E.05769
M73 P2 R33
G1 X118.266 Y70.358 E.05791
G1 X120.089 Y70.054 E.05795
G1 X121.924 Y69.844 E.05791
G1 X123.769 Y69.732 E.05796
G1 X125.009 Y69.71 E.03889
G1 X126.847 Y69.758 E.05765
G1 X128.689 Y69.903 E.05793
G1 X130.521 Y70.145 E.05794
G1 X132.337 Y70.481 E.05791
G1 X133.833 Y70.84 E.04824
M204 S1000
;WIPE_START
G1 F8640
G1 X133.892 Y70.854 E-.014
G1 X134.135 Y70.913 E-.05774
G1 X135.317 Y71.252 E-.28393
G1 X137.07 Y71.838 E-.42679
G1 X137.141 Y71.866 E-.01754
;WIPE_END
G1 Z.6 F720
G1 X148.771 Y80.312 F10800
G1 Z.2 F720
G1 E.8 F2100
M204 S800
;TYPE:Perimeter
;WIDTH:0.499813
G1 F1200
G1 X148.794 Y80.319 E.00091
;WIDTH:0.53972
G1 X148.928 Y80.36 E.00579
;WIDTH:0.54655
G1 X149.7 Y81.133 E.04575
;WIDTH:0.545529
G1 X150.536 Y82.029 E.05121
;WIDTH:0.54936
G1 X151.682 Y83.372 E.07435
;WIDTH:0.539193
G1 X151.702 Y83.398 E.00135
;WIDTH:0.549331
G1 X152.777 Y84.798 E.07433
;WIDTH:0.539194
G1 X152.793 Y84.82 E.00112
;WIDTH:0.544082
G1 X153.483 Y85.801 E.04998
G1 X154.125 Y86.795 E.04931
;WIDTH:0.549333
G1 X155.032 Y88.334 E.07522
;WIDTH:0.546785
G1 X155.598 Y89.397 E.05046
;WIDTH:0.539081
