; generated by PrusaSlicer 2.7.2+MacOS-arm64 on 2024-03-30 at 14:03:09 UTC


;
;
; 

; external perimeters extrusion width = 0.45mm
; perimeters extrusion width = 0.45mm
; infill extrusion width = 0.45mm
; solid infill extrusion width = 0.45mm
; top infill extrusion width = 0.40mm
; first layer extrusion width = 0.42mm

M73 P0 R35
M73 Q0 S35
M201 X1000 Y1000 Z200 E5000 ; sets maximum accelerations, mm/sec^2
M203 X200 Y200 Z12 E120 ; sets maximum feedrates, mm / sec
M204 S1250 T1250 ; sets acceleration (S) and retract acceleration (R), mm/sec^2
M205 X8.00 Y8.00 Z0.40 E4.50 ; sets the jerk limits, mm/sec
M205 S0 T0 ; sets the minimum extruding and travel feed rate, mm/sec

; printing object adapter-32.5x0.5-to-39x1.stl id:0 copy 0
; stop printing object adapter-32.5x0.5-to-39x1.stl id:0 copy 0

;TYPE:Custom
M862.3 P "MK3S" ; printer model check
M862.1 P0.4 ; nozzle diameter check
M115 U3.12.1 ; tell printer latest fw version
G90 ; use absolute coordinates
M83 ; extruder relative mode
M104 S215 ; set extruder temp
M140 S60 ; set bed temp
M190 S60 ; wait for bed temp
M109 S215 ; wait for extruder temp
G28 W ; home all without mesh bed level
G80 ; mesh bed leveling

G1 Z0.2 F720
G1 Y-3 F1000 ; go outside print area
G92 E0
G1 X60 E9 F1000 ; intro line
G1 X100 E12.5 F1000 ; intro line

G92 E0
M221 S95

; Don't change E values below. Excessive value can damage the printer.
M907 E430 ; set extruder motor current
G21 ; set units to millimeters
G90 ; use absolute coordinates
M83 ; use relative distances for extrusion
M900 K0.05 ; Filament gcode LA 1.5
M900 K30 ; Filament gcode LA 1.0
M107
;LAYER_CHANGE
;Z:0.2
;HEIGHT:0.2
G1 E-.8 F2100
G1 Z.6 F720
G1 X103.358 Y84.645 F10800
G1 Z.2 F720
G1 E.8 F2100
M204 S800
;TYPE:Skirt/Brim
;WIDTH:0.42
G1 F1200
G1 X104.645 Y83.358 E.05707
G1 X124.09 Y75.304 E.65991
G1 X125.91 Y75.304 E.05706
G1 X130.042 Y77.015 E.14022
G1 X145.355 Y83.358 E.51969
G1 X146.642 Y84.645 E.05707
G1 X154.696 Y104.09 E.65991
G1 X154.696 Y105.91 E.05706
G1 X146.642 Y125.355 E.65991
G1 X145.355 Y126.642 E.05707
G1 X125.91 Y134.696 E.65991
G1 X124.09 Y134.696 E.05706
G1 X104.645 Y126.642 E.65991
G1 X103.358 Y125.355 E.05707
G1 X95.304 Y105.91 E.65991
G1 X95.304 Y104.09 E.05706
G1 X103.335 Y84.7 E.65804
M204 S1000
; printing object adapter-32.5x0.5-to-39x1.stl id:0 copy 0
;WIPE_START
G1 F8640
G1 X103.358 Y84.645 E-.01377
G1 X104.645 Y83.358 E-.42026
G1 X106.109 Y82.751 E-.36597
;WIPE_END
G1 Z.6 F720
G1 X143.843 Y123.843 F10800
G1 Z.2 F720
G1 E.8 F2100
M204 S800
;TYPE:Perimeter
;WIDTH:0.419999
G1 F1200
G1 X125 Y131.648 E.63949
G1 X106.157 Y123.843 E.63949
G1 X98.352 Y105 E.63949
G1 X106.157 Y86.157 E.63949
G1 X125 Y78.352 E.63949
M73 Q1 S35
G1 X143.843 Y86.157 E.63949
M73 P1 R34
G1 X151.648 Y105 E.63949
G1 X150.917 Y106.765 E.0599
G1 X143.866 Y123.788 E.57772
M204 S1000
G1 X143.866 Y123.788 F10800
G1 X144.132 Y124.132
M204 S800
;TYPE:External perimeter
G1 F1200
G1 X125 Y132.056 E.64929
G1 X105.868 Y124.132 E.64929
G1 X97.944 Y105 E.64929
G1 X105.868 Y85.868 E.64929
G1 X125 Y77.944 E.64929
M73 Q1 S34
G1 X144.132 Y85.868 E.64929
G1 X152.056 Y105 E.64929
G1 X151.265 Y106.91 E.06482
G1 X144.155 Y124.076 E.58257
M204 S1000
;WIPE_START
G1 F8640
G1 X144.132 Y124.132 E-.01398
G1 X140.987 Y125.435 E-.78602
;WIPE_END
G1 Z.6 F720
G1 X141.699 Y101.454 F10800
G1 Z.2 F720
G1 E.8 F2100
M204 S800
;TYPE:Perimeter
G1 F1200
G1 X141.825 Y102.142 E.02193
G1 X141.924 Y102.851 E.02245
G1 X141.993 Y103.561 E.02237
G1 X142.033 Y104.274 E.02239
G1 X142.043 Y104.988 E.02239
G1 X142.022 Y105.701 E.02237
G1 X141.972 Y106.413 E.02238
G1 X141.893 Y107.122 E.02237
G1 X141.783 Y107.826 E.02234
G1 X141.644 Y108.525 E.02235
G1 X141.477 Y109.218 E.02235
G1 X141.28 Y109.902 E.02232
G1 X141.055 Y110.578 E.02234
G1 X140.802 Y111.243 E.02231
G1 X140.521 Y111.897 E.02232
G1 X140.214 Y112.539 E.02231
G1 X139.88 Y113.166 E.02227
G1 X139.517 Y113.783 E.02245
G1 X139.134 Y114.377 E.02216
G1 X138.303 Y115.516 E.04421
G1 X137.844 Y116.072 E.02261
G1 X137.37 Y116.6 E.02225
G1 X136.955 Y117.024 E.0186
G1 X136.382 Y117.569 E.02479
G1 X135.819 Y118.058 E.02338
G1 X135.262 Y118.5 E.02229
G1 X134.688 Y118.918 E.02226
G1 X134.096 Y119.311 E.02228
G1 X133.489 Y119.68 E.02227
G1 X132.867 Y120.022 E.02226
G1 X132.231 Y120.339 E.02228
G1 X131.582 Y120.628 E.02228
G1 X130.922 Y120.89 E.02226
G1 X130.251 Y121.124 E.02228
G1 X129.572 Y121.33 E.02225
G1 X128.873 Y121.509 E.02262
G1 X128.189 Y121.655 E.02193
G1 X127.498 Y121.773 E.02198
G1 X126.795 Y121.862 E.02222
G1 X126.077 Y121.923 E.02259
G1 X125.367 Y121.954 E.02228
G1 X124.657 Y121.954 E.02226
G1 X123.597 Y121.896 E.03329
G1 X122.542 Y121.778 E.03328
G1 X121.834 Y121.659 E.02251
G1 X121.139 Y121.512 E.02227
G1 X120.418 Y121.327 E.02334
G1 X119.112 Y120.906 E.04302
G1 X118.44 Y120.648 E.02257
G1 X117.788 Y120.365 E.02229
G1 X117.148 Y120.054 E.02231
G1 X116.522 Y119.717 E.02229
G1 X115.91 Y119.354 E.02231
G1 X115.314 Y118.966 E.0223
G1 X114.734 Y118.552 E.02234
G1 X114.171 Y118.115 E.02235
G1 X113.628 Y117.654 E.02233
G1 X113.103 Y117.171 E.02237
G1 X112.591 Y116.656 E.02277
G1 X112.109 Y116.131 E.02235
G1 X111.651 Y115.585 E.02234
G1 X111.215 Y115.021 E.02235
G1 X110.803 Y114.439 E.02236
G1 X110.415 Y113.839 E.0224
G1 X110.053 Y113.224 E.02238
G1 X109.717 Y112.594 E.02239
G1 X109.407 Y111.95 E.02241
G1 X109.125 Y111.294 E.02239
G1 X108.87 Y110.626 E.02242
G1 X108.643 Y109.948 E.02242
G1 X108.445 Y109.26 E.02245
G1 X108.276 Y108.569 E.0223
G1 X108.136 Y107.867 E.02244
G1 X108.025 Y107.159 E.02247
G1 X107.944 Y106.446 E.0225
G1 X107.892 Y105.731 E.02248
G1 X107.871 Y104.991 E.02321
G1 X107.88 Y104.297 E.02176
G1 X107.918 Y103.58 E.02251
G1 X107.987 Y102.866 E.02249
G1 X108.085 Y102.159 E.02238
G1 X108.213 Y101.452 E.02253
G1 X108.371 Y100.751 E.02253
G1 X108.56 Y100.049 E.02279
G1 X108.774 Y99.37 E.02232
G1 X109.019 Y98.693 E.02257
G1 X109.292 Y98.027 E.02257
G1 X109.592 Y97.372 E.02259
G1 X109.922 Y96.728 E.02269
G1 X110.275 Y96.103 E.02251
G1 X110.656 Y95.491 E.0226
G1 X111.062 Y94.895 E.02261
G1 X111.493 Y94.317 E.02261
G1 X111.948 Y93.757 E.02262
G1 X112.427 Y93.215 E.02268
G1 X112.872 Y92.752 E.02014
G1 X113.45 Y92.195 E.02517
G1 X113.994 Y91.72 E.02264
G1 X114.562 Y91.269 E.02274
G1 X115.146 Y90.844 E.02265
G1 X115.748 Y90.443 E.02268
G1 X116.366 Y90.069 E.02265
G1 X117.226 Y89.607 E.03061
G1 X118.296 Y89.108 E.03702
G1 X118.977 Y88.838 E.02297
G1 X119.689 Y88.59 E.02364
G1 X120.696 Y88.301 E.03285
G1 X121.748 Y88.061 E.03383
G1 X122.469 Y87.939 E.02293
G1 X123.185 Y87.848 E.02263
G1 X123.905 Y87.787 E.02266
G1 X124.627 Y87.756 E.02266
G1 X125.349 Y87.755 E.02264
G1 X126.071 Y87.785 E.02266
G1 X126.785 Y87.848 E.02247
G1 X127.5 Y87.943 E.02262
G1 X128.215 Y88.069 E.02276
G1 X128.921 Y88.225 E.02267
G1 X129.619 Y88.409 E.02263
G1 X130.308 Y88.623 E.02262
G1 X130.987 Y88.865 E.0226
G1 X131.655 Y89.135 E.02259
G1 X132.311 Y89.433 E.02259
G1 X132.954 Y89.758 E.02259
G1 X133.583 Y90.109 E.02258
G1 X134.196 Y90.487 E.02258
G1 X134.792 Y90.889 E.02254
G1 X135.371 Y91.316 E.02256
G1 X135.931 Y91.767 E.02254
G1 X136.472 Y92.241 E.02255
G1 X136.992 Y92.736 E.02251
G1 X137.51 Y93.274 E.02342
G1 X138.262 Y94.136 E.03587
G1 X138.85 Y94.922 E.03078
G1 X139.256 Y95.514 E.02251
G1 X139.635 Y96.122 E.02246
G1 X139.989 Y96.745 E.02247
G1 X140.317 Y97.383 E.02249
G1 X140.617 Y98.033 E.02245
G1 X140.89 Y98.696 E.02248
G1 X141.134 Y99.368 E.02242
G1 X141.35 Y100.051 E.02246
G1 X141.538 Y100.741 E.02242
G1 X141.686 Y101.395 E.02102
M204 S1000
G1 X141.328 Y101.522 F10800
M204 S800
;TYPE:External perimeter
G1 F1200
G1 X141.454 Y102.21 E.02193
G1 X141.551 Y102.903 E.02194
G1 X141.618 Y103.597 E.02186
G1 X141.656 Y104.294 E.02189
G1 X141.666 Y104.993 E.02192
G1 X141.645 Y105.69 E.02186
G1 X141.596 Y106.386 E.02188
G1 X141.518 Y107.079 E.02187
G1 X141.411 Y107.768 E.02186
G1 X141.275 Y108.452 E.02187
G1 X141.11 Y109.129 E.02185
G1 X140.918 Y109.798 E.02182
G1 X140.697 Y110.459 E.02185
G1 X140.45 Y111.109 E.0218
G1 X140.175 Y111.748 E.02181
G1 X139.874 Y112.375 E.02181
G1 X139.547 Y112.989 E.02181
G1 X139.192 Y113.592 E.02194
G1 X138.818 Y114.172 E.02164
G1 X137.999 Y115.293 E.04353
G1 X137.554 Y115.831 E.02189
G1 X137.089 Y116.347 E.02178
G1 X136.686 Y116.76 E.01809
G1 X136.124 Y117.294 E.02431
G1 X135.572 Y117.773 E.02292
G1 X135.028 Y118.205 E.02178
G1 X134.466 Y118.613 E.02178
G1 X133.888 Y118.997 E.02176
G1 X133.294 Y119.357 E.02178
G1 X132.685 Y119.692 E.02179
G1 X132.063 Y120.001 E.02178
G1 X131.429 Y120.284 E.02177
G1 X130.783 Y120.539 E.02178
G1 X130.127 Y120.768 E.02179
G1 X129.463 Y120.969 E.02175
G1 X128.779 Y121.144 E.02214
G1 X128.111 Y121.286 E.02141
G1 X127.435 Y121.401 E.0215
G1 X126.747 Y121.488 E.02174
G1 X126.045 Y121.548 E.02209
G1 X125.351 Y121.577 E.02178
G1 X124.657 Y121.577 E.02176
G1 X123.618 Y121.519 E.03263
G1 X122.584 Y121.404 E.03262
G1 X121.897 Y121.288 E.02185
G1 X121.218 Y121.143 E.02177
G1 X120.534 Y120.968 E.02214
G1 X119.227 Y120.547 E.04305
G1 X118.576 Y120.296 E.02188
G1 X117.939 Y120.019 E.02178
G1 X117.313 Y119.715 E.02182
G1 X116.701 Y119.385 E.0218
G1 X116.103 Y119.03 E.0218
G1 X115.52 Y118.65 E.02182
G1 X114.953 Y118.246 E.02183
G1 X114.403 Y117.817 E.02187
G1 X113.872 Y117.366 E.02184
G1 X113.359 Y116.894 E.02186
G1 X112.858 Y116.39 E.02228
G1 X112.388 Y115.876 E.02184
G1 X111.939 Y115.343 E.02185
G1 X111.513 Y114.791 E.02186
G1 X111.111 Y114.221 E.02187
G1 X110.732 Y113.635 E.02188
G1 X110.378 Y113.033 E.0219
G1 X110.05 Y112.417 E.02188
G1 X109.747 Y111.787 E.02192
G1 X109.471 Y111.145 E.02191
G1 X109.222 Y110.492 E.02191
G1 X109.001 Y109.828 E.02194
G1 X108.807 Y109.156 E.02193
G1 X108.643 Y108.48 E.02181
G1 X108.506 Y107.793 E.02196
G1 X108.398 Y107.1 E.02199
M73 Q2 S34
G1 X108.318 Y106.404 E.02197
G1 X108.269 Y105.705 E.02197
G1 X108.248 Y104.995 E.02227
G1 X108.257 Y104.302 E.02173
G1 X108.295 Y103.601 E.02201
G1 X108.362 Y102.902 E.02202
G1 X108.458 Y102.211 E.02187
M73 P2 R34
G1 X108.584 Y101.519 E.02205
G1 X108.739 Y100.834 E.02202
G1 X108.924 Y100.148 E.02228
G1 X109.133 Y99.483 E.02186
G1 X109.373 Y98.821 E.02208
G1 X109.64 Y98.17 E.02206
G1 X109.935 Y97.53 E.0221
G1 X110.257 Y96.9 E.02218
G1 X110.603 Y96.289 E.02202
G1 X110.976 Y95.691 E.0221
G1 X111.373 Y95.108 E.02212
G1 X111.795 Y94.542 E.02214
G1 X112.24 Y93.995 E.02211
G1 X112.709 Y93.465 E.02219
G1 X113.143 Y93.014 E.01962
G1 X113.711 Y92.468 E.0247
G1 X114.242 Y92.004 E.02211
G1 X114.796 Y91.564 E.02218
G1 X115.367 Y91.149 E.02213
G1 X115.957 Y90.757 E.02221
G1 X116.561 Y90.391 E.02214
G1 X117.385 Y89.949 E.02932
G1 X118.455 Y89.45 E.03702
G1 X119.115 Y89.188 E.02226
G1 X119.793 Y88.953 E.0225
G1 X120.8 Y88.664 E.03285
G1 X121.832 Y88.429 E.03319
G1 X122.532 Y88.31 E.02226
G1 X123.233 Y88.222 E.02215
G1 X123.937 Y88.162 E.02215
G1 X124.643 Y88.133 E.02215
G1 X125.349 Y88.133 E.02214
G1 X126.056 Y88.162 E.02219
G1 X126.752 Y88.223 E.02191
G1 X127.45 Y88.317 E.02208
G1 X128.15 Y88.441 E.02229
G1 X128.84 Y88.593 E.02215
G1 X129.522 Y88.774 E.02212
G1 X130.196 Y88.983 E.02213
G1 X130.86 Y89.22 E.02211
G1 X131.514 Y89.485 E.02213
G1 X132.155 Y89.776 E.02207
G1 X132.784 Y90.094 E.0221
G1 X133.398 Y90.438 E.02207
G1 X133.998 Y90.808 E.0221
G1 X134.581 Y91.202 E.02206
G1 X135.147 Y91.62 E.02206
G1 X135.694 Y92.061 E.02203
G1 X136.223 Y92.524 E.02204
G1 X136.732 Y93.009 E.02204
G1 X137.226 Y93.522 E.02233
G1 X137.978 Y94.384 E.03587
G1 X138.548 Y95.147 E.02986
G1 X138.944 Y95.726 E.02199
G1 X139.315 Y96.322 E.02201
G1 X139.661 Y96.931 E.02196
G1 X139.981 Y97.555 E.02199
G1 X140.274 Y98.191 E.02196
G1 X140.541 Y98.839 E.02197
G1 X140.78 Y99.497 E.02195
G1 X140.991 Y100.164 E.02193
G1 X141.174 Y100.84 E.02196
G1 X141.315 Y101.463 E.02003
M204 S1000
;WIPE_START
G1 F8640
G1 X141.328 Y101.522 E-.01395
G1 X141.454 Y102.21 E-.1615
G1 X141.551 Y102.903 E-.16158
G1 X141.618 Y103.597 E-.16099
G1 X141.656 Y104.294 E-.16118
G1 X141.664 Y104.903 E-.1408
;WIPE_END
G1 Z.6 F720
G1 X144.26 Y87.608 F10800
G1 Z.2 F720
G1 E.8 F2100
M204 S800
;TYPE:Solid infill
;WIDTH:0.421274
G1 F1200
G1 X142.706 Y86.053 E.06916
G1 X141.792 Y85.675 E.03112
G1 X144.325 Y88.208 E.1127
G1 X144.704 Y89.121 E.0311
G1 X140.879 Y85.296 E.17018
G1 X139.965 Y84.918 E.03112
G1 X145.082 Y90.035 E.22766
G1 X145.46 Y90.948 E.03109
G1 X139.052 Y84.54 E.2851
G1 X138.139 Y84.161 E.0311
G1 X145.839 Y91.861 E.34258
G1 X146.217 Y92.775 E.03112
G1 X137.225 Y83.783 E.40007
G1 X136.312 Y83.405 E.03109
G1 X146.595 Y93.688 E.45751
G1 X146.974 Y94.602 E.03113
G1 X135.398 Y83.026 E.51503
G1 X134.485 Y82.648 E.03109
G1 X147.352 Y95.515 E.57247
G1 X147.73 Y96.429 E.03112
G1 X133.571 Y82.27 E.62996
G1 X132.658 Y81.891 E.0311
G1 X148.109 Y97.342 E.68744
G1 X148.487 Y98.255 E.03109
G1 X131.745 Y81.513 E.74488
G1 X130.831 Y81.135 E.03112
G1 X148.865 Y99.169 E.80236
G1 X149.244 Y100.082 E.0311
G1 X129.918 Y80.756 E.85984
G1 X129.004 Y80.378 E.03112
G1 X149.622 Y100.996 E.91733
G1 X150 Y101.909 E.03109
G1 X128.091 Y80 E.97477
G1 X127.177 Y79.621 E.03113
G1 X150.379 Y102.823 E1.03229
G1 X150.757 Y103.736 E.03109
G1 X126.264 Y79.243 E1.08973
G1 X125.351 Y78.864 E.0311
M73 P3 R34
M73 Q3 S34
G1 X151.136 Y104.649 E1.14721
G1 X151.281 Y105 E.01195
G1 X151.184 Y105.233 E.00794
G1 X124.767 Y78.816 E1.17533
G1 X124.389 Y78.973 E.01288
G1 X151.027 Y105.611 E1.18517
G1 X150.871 Y105.99 E.01289
G1 X124.01 Y79.129 E1.19509
G1 X123.632 Y79.286 E.01288
G1 X134.895 Y90.55 E.50113
G1 X135.575 Y91.045 E.02646
G1 X136.146 Y91.505 E.02307
G1 X136.721 Y92.009 E.02406
G1 X137.251 Y92.516 E.02307
G1 X137.763 Y93.048 E.02323
G1 X138.521 Y93.917 E.03628
G1 X139.248 Y94.902 E.03851
G1 X150.714 Y106.368 E.51014
G1 X150.557 Y106.747 E.01291
G1 X140.147 Y96.336 E.46318
G1 X140.718 Y97.442 E.03916
G1 X150.401 Y107.125 E.43081
G1 X150.244 Y107.503 E.01288
G1 X141.131 Y98.39 E.40545
G1 X141.45 Y99.245 E.02871
G1 X150.087 Y107.882 E.38427
G1 X149.93 Y108.26 E.01288
G1 X141.695 Y100.025 E.36639
G1 X141.889 Y100.754 E.02373
G1 X149.774 Y108.638 E.35079
G1 X149.617 Y109.017 E.01291
G1 X142.041 Y101.441 E.33707
G1 X142.161 Y102.095 E.02092
G1 X149.46 Y109.395 E.32477
G1 X149.304 Y109.773 E.01286
G1 X142.248 Y102.718 E.31391
G1 X142.31 Y103.315 E.01888
G1 X149.147 Y110.152 E.30419
G1 X148.99 Y110.53 E.01288
G1 X142.352 Y103.892 E.29533
G1 X142.375 Y104.45 E.01757
G1 X148.833 Y110.908 E.28733
G1 X148.677 Y111.287 E.01289
G1 X142.382 Y104.992 E.28007
G1 X142.367 Y105.512 E.01637
G1 X148.52 Y111.665 E.27376
G1 X148.363 Y112.044 E.01291
G1 X142.34 Y106.02 E.26799
G1 X142.302 Y106.518 E.01571
G1 X148.207 Y112.422 E.2627
M73 P3 R33
G1 X148.05 Y112.8 E.01288
G1 X142.248 Y106.998 E.25814
G1 X142.182 Y107.468 E.01493
G1 X147.893 Y113.179 E.25409
G1 X147.736 Y113.557 E.01288
G1 X142.109 Y107.929 E.25038
G1 X142.02 Y108.376 E.01434
G1 X147.58 Y113.935 E.24735
G1 X147.423 Y114.314 E.01291
G1 X141.924 Y108.814 E.24468
G1 X141.819 Y109.245 E.01396
G1 X147.266 Y114.692 E.24235
G1 X147.109 Y115.07 E.01288
M73 P4 R33
M73 Q4 S34
G1 X141.702 Y109.662 E.24059
G1 X141.58 Y110.076 E.01358
G1 X146.953 Y115.449 E.23905
G1 X146.796 Y115.827 E.01288
G1 X141.446 Y110.477 E.23803
G1 X141.306 Y110.872 E.01318
G1 X146.639 Y116.205 E.23727
G1 X146.483 Y116.584 E.01289
G1 X141.158 Y111.26 E.2369
G1 X141.002 Y111.638 E.01286
G1 X146.326 Y116.962 E.23687
G1 X146.169 Y117.34 E.01288
G1 X140.841 Y112.013 E.23703
G1 X140.669 Y112.375 E.01261
G1 X146.012 Y117.719 E.23774
G1 X145.856 Y118.097 E.01286
G1 X140.494 Y112.735 E.23856
G1 X140.308 Y113.084 E.01244
M73 Q4 S33
G1 X145.699 Y118.476 E.23988
G1 X145.542 Y118.854 E.01288
G1 X140.118 Y113.43 E.24132
G1 X139.92 Y113.767 E.0123
G1 X145.386 Y119.232 E.24317
G1 X145.229 Y119.611 E.01291
G1 X139.717 Y114.099 E.24524
G1 X139.507 Y114.424 E.01217
G1 X145.072 Y119.989 E.2476
G1 X144.915 Y120.367 E.01288
G1 X139.289 Y114.741 E.25031
G1 X139.063 Y115.05 E.01204
G1 X144.759 Y120.746 E.25342
G1 X144.602 Y121.124 E.01288
G1 X138.838 Y115.36 E.25645
G1 X138.612 Y115.669 E.01204
G1 X144.445 Y121.502 E.25952
G1 X144.289 Y121.881 E.01289
G1 X138.372 Y115.965 E.26323
G1 X138.131 Y116.258 E.01194
G1 X144.132 Y122.259 E.26699
